svgs/1F924.svg

<svg xmlns="http://www.w3.org/2000/svg" xmlns:xlink="http://www.w3.org/1999/xlink" preserveAspectRatio="none" viewBox="0 0 72 72"><defs><path id="a" fill="#FCC21B" d="M36 5.45q-22.35 0-31.1 20.6Q.1 37.3.1 52.5q0 5.85 10.55 9.95Q21.1 66.6 36 66.6q14.85 0 25.35-4.15 10.5-4.1 10.5-9.95 0-15.2-4.75-26.45Q58.3 5.45 36 5.45z"/><path id="b" fill="#2F2F2F" d="M86.4 86.65q.95-.95.9-2.3 0-1.35-.95-2.3-1-.95-2.3-.95-1.35.05-2.3 1-1.8 1.75-4.8 3.35-6 3.15-13.1 3.15-7.05 0-13.05-3.15-4.65-3.2-4.8-3.35-.95-.95-2.3-1-1.3 0-2.3.95-.95.95-1 2.3 0 1.3.95 2.3.2.15 6.1 4.35 7.55 4.1 16.4 4.1 8.85 0 16.45-4.1 3.85-2.1 6.1-4.35z"/><path id="d" fill="#2F2F2F" d="M54.1 34.5q.3.5.9.7.65.1 1.15-.2.55-.35.7-.9.2-.65-.15-1.15-.7-1.2-2-2.25-2.6-2.05-6.1-2.05-3.4 0-6.05 2.05-1.95 2.15-2.05 2.25-.3.5-.1 1.15.15.6.7.9.4.25.75.25.9 0 1.3-.75.05-.1 1.4-1.45 1.75-1.35 4.05-1.35 2.35 0 4.1 1.35.9.65 1.4 1.45z"/><path id="e" fill="#2F2F2F" d="M15.8 35.05q.4.25.75.25.9 0 1.35-.75.05-.1 1.35-1.45 1.75-1.35 4.1-1.35 2.35 0 4.15 1.35.9.7 1.3 1.45.3.55.95.7.6.15 1.15-.2.55-.3.7-.9.15-.65-.2-1.15-.4-1-2-2.25-2.6-2.05-6.05-2.05-3.45 0-6.1 2.05-1.95 2.1-2 2.25-.3.5-.15 1.15.15.6.7.9z"/><path id="f" fill="#ED6C30" d="M91.45 76.95q-1.95-1.6-8.55-.75-11 1.4-17 1.4-5.9 0-19.05-2.05-8.3-1.3-10.5.95-.7.7-.95 1.9-.2 1.1.05 2.15 1.75 7.3 10.15 11.75 8.25 4.4 19.8 4.4 11.85 0 19.25-4.65 6.9-4.35 8.15-11.5.35-2.2-1.35-3.6z"/><path id="g" fill="#40C0E7" d="M33.15 52.35q-.25.3-.35.75 5.255 1.048 11.1-.15 1.7 0 2.5-.65-.159-.925-.7-1.05-.544-.119-1.9.5-1.302.606-2.3.6-1.05 0-3.4-.3-2.25-.25-3.15-.25-1.25-.05-1.8.55z"/><path id="h" fill="#40C0E7" d="M36.8 52.95q2.05.4 2.8 1.2.85.9.85 3.1 0 .7-.05 2.2-.05 1.35.05 2.15.2 1 .85 1.45.55.3 1.2.2 1.1-.2 1.3-2.15 0-2.8.1-4.45.1-1.35 1.2-2.45 1.15-1.15 1.3-1.85l-9.6.6z"/><path id="c" fill="none" stroke="#2F2F2F" stroke-linecap="round" stroke-linejoin="round" stroke-width="3" d="M47.55 21.3q6.7-.75 11.1 2.95m-35.1-4.85q-6.088-.043-9.4 5.65"/></defs><use xlink:href="#a"/><use transform="translate(181.25 -15.4) scale(.5625)" xlink:href="#b"/><use xlink:href="#c"/><use transform="rotate(9.999 48.9 32.294)" xlink:href="#d"/><use transform="rotate(-9.999 23.12 31.971)" xlink:href="#e"/><g transform="matrix(.4635 0 0 .43608 6.3 11.2)"><use xlink:href="#f"/></g><g><use xlink:href="#g"/></g><g><use xlink:href="#h"/></g></svg>

<svg xmlns="http://www.w3.org/2000/svg" version="1.1" xmlns:xlink="http://www.w3.org/1999/xlink" preserveAspectRatio="none" x="0px" y="0px" width="72px" height="72px" viewBox="0 0 72 72">
<defs>
<g id="Layer1_0_FILL">
<path fill="#FCC21B" stroke="none" d="
M 36 5.45
Q 13.65 5.45 4.9 26.05 0.1 37.3 0.1 52.5 0.1 58.35 10.65 62.45 21.1 66.6 36 66.6 50.85 66.6 61.35 62.45 71.85 58.35 71.85 52.5 71.85 37.3 67.1 26.05 58.3 5.45 36 5.45 Z"/>
</g>

<g id="Layer1_1_FILL">
<path fill="#2F2F2F" stroke="none" d="
M 86.4 86.65
Q 87.35 85.7 87.3 84.35 87.3 83 86.35 82.05 85.35 81.1 84.05 81.1 82.7 81.15 81.75 82.1 79.95 83.85 76.95 85.45 70.95 88.6 63.85 88.6 56.8 88.6 50.8 85.45 46.15 82.25 46 82.1 45.05 81.15 43.7 81.1 42.4 81.1 41.4 82.05 40.45 83 40.4 84.35 40.4 85.65 41.35 86.65 41.55 86.8 47.45 91 55 95.1 63.85 95.1 72.7 95.1 80.3 91 84.15 88.9 86.4 86.65 Z"/>
</g>

<g id="Layer1_3_FILL">
<path fill="#2F2F2F" stroke="none" d="
M 54.1 34.5
Q 54.4 35 55 35.2 55.65 35.3 56.15 35 56.7 34.65 56.85 34.1 57.05 33.45 56.7 32.95 56 31.75 54.7 30.7 52.1 28.65 48.6 28.65 45.2 28.65 42.55 30.7 40.6 32.85 40.5 32.95 40.2 33.45 40.4 34.1 40.55 34.7 41.1 35 41.5 35.25 41.85 35.25 42.75 35.25 43.15 34.5 43.2 34.4 44.55 33.05 46.3 31.7 48.6 31.7 50.95 31.7 52.7 33.05 53.6 33.7 54.1 34.5 Z"/>
</g>

<g id="Layer1_4_FILL">
<path fill="#2F2F2F" stroke="none" d="
M 15.8 35.05
Q 16.2 35.3 16.55 35.3 17.45 35.3 17.9 34.55 17.95 34.45 19.25 33.1 21 31.75 23.35 31.75 25.7 31.75 27.5 33.1 28.4 33.8 28.8 34.55 29.1 35.1 29.75 35.25 30.35 35.4 30.9 35.05 31.45 34.75 31.6 34.15 31.75 33.5 31.4 33 31 32 29.4 30.75 26.8 28.7 23.35 28.7 19.9 28.7 17.25 30.75 15.3 32.85 15.25 33 14.95 33.5 15.1 34.15 15.25 34.75 15.8 35.05 Z"/>
</g>

<g id="Layer0_0_FILL">
<path fill="#ED6C30" stroke="none" d="
M 91.45 76.95
Q 89.5 75.35 82.9 76.2 71.9 77.6 65.9 77.6 60 77.6 46.85 75.55 38.55 74.25 36.35 76.5 35.65 77.2 35.4 78.4 35.2 79.5 35.45 80.55 37.2 87.85 45.6 92.3 53.85 96.7 65.4 96.7 77.25 96.7 84.65 92.05 91.55 87.7 92.8 80.55 93.15 78.35 91.45 76.95 Z"/>
</g>

<g id="Layer0_1_FILL">
<path fill="#40C0E7" stroke="none" d="
M 33.15 52.35
Q 32.9 52.65 32.8 53.1 38.05546875 54.1482421875 43.9 52.95 45.6 52.95 46.4 52.3 46.24140625 51.374609375 45.7 51.25 45.1564453125 51.1314453125 43.8 51.75 42.4978515625 52.3560546875 41.5 52.35 40.45 52.35 38.1 52.05 35.85 51.8 34.95 51.8 33.7 51.75 33.15 52.35 Z"/>
</g>

<g id="Layer0_2_FILL">
<path fill="#40C0E7" stroke="none" d="
M 36.8 52.95
Q 38.85 53.35 39.6 54.15 40.45 55.05 40.45 57.25 40.45 57.95 40.4 59.45 40.35 60.8 40.45 61.6 40.65 62.6 41.3 63.05 41.85 63.35 42.5 63.25 43.6 63.05 43.8 61.1 43.8 58.3 43.9 56.65 44 55.3 45.1 54.2 46.25 53.05 46.4 52.35
L 36.8 52.95 Z"/>
</g>

<path id="Layer1_2_1_STROKES" stroke="#2F2F2F" stroke-width="3" stroke-linejoin="round" stroke-linecap="round" fill="none" d="
M 47.55 21.3
Q 54.25 20.55 58.65 24.25
M 23.55 19.4
Q 17.462109375 19.3572265625 14.15 25.05"/>
</defs>

<g id="Layer_1">
<g transform="matrix( 1, 0, 0, 1, 0,0) ">
<use xlink:href="#Layer1_0_FILL"/>
</g>

<g transform="matrix( 0.5625, 0, 0, 0.5625, 181.25,-15.4) ">
<use xlink:href="#Layer1_1_FILL"/>
</g>

<g transform="matrix( 1, 0, 0, 1, 0,0) ">
<use xlink:href="#Layer1_2_1_STROKES"/>
</g>

<g transform="matrix( 0.9848175048828125, 0.1736297607421875, -0.1736297607421875, 0.9848175048828125, 6.35,-8) ">
<use xlink:href="#Layer1_3_FILL"/>
</g>

<g transform="matrix( 0.9848175048828125, -0.1736297607421875, 0.1736297607421875, 0.9848175048828125, -5.2,4.5) ">
<use xlink:href="#Layer1_4_FILL"/>
</g>
</g>

<g transform="matrix( 0.4635009765625, 0, 0, 0.4360809326171875, 6.3,11.2) ">
<use xlink:href="#Layer0_0_FILL"/>
</g>

<g transform="matrix( 1, 0, 0, 1, 0,0) ">
<use xlink:href="#Layer0_1_FILL"/>
</g>

<g transform="matrix( 1, 0, 0, 1, 0,0) ">
<use xlink:href="#Layer0_2_FILL"/>
</g>
</svg>
